Newaita-dark/actions/22/zoom-2-to-1.svg

<?xml version="1.0" encoding="UTF-8"?>
<svg xmlns="http://www.w3.org/2000/svg" xmlns:xlink="http://www.w3.org/1999/xlink" width="22pt" height="22pt" viewBox="0 0 22 22" version="1.1">
<g id="surface1">
<path style=" stroke:none;fill-rule:nonzero;fill:rgb(47.058824%,56.470591%,61.176473%);fill-opacity:1;" d="M 2.273438 1.082031 C 1.519531 1.082031 0.910156 1.691406 0.910156 2.445312 L 0.910156 4.71875 L 2.273438 4.71875 L 2.273438 3.355469 C 2.273438 2.851562 2.679688 2.445312 3.183594 2.445312 L 4.546875 2.445312 L 4.546875 1.082031 Z M 17.28125 1.082031 L 17.28125 2.445312 L 18.648438 2.445312 C 19.152344 2.445312 19.554688 2.851562 19.554688 3.355469 L 19.554688 4.71875 L 20.921875 4.71875 L 20.921875 2.445312 C 20.921875 1.691406 20.3125 1.082031 19.554688 1.082031 Z M 0.910156 17.453125 L 0.910156 19.726562 C 0.910156 20.484375 1.519531 21.09375 2.273438 21.09375 L 4.546875 21.09375 L 4.546875 19.726562 L 3.183594 19.726562 C 2.679688 19.726562 2.273438 19.324219 2.273438 18.820312 L 2.273438 17.453125 Z M 19.554688 17.453125 L 19.554688 18.820312 C 19.554688 19.324219 19.152344 19.726562 18.648438 19.726562 L 17.28125 19.726562 L 17.28125 21.09375 L 19.554688 21.09375 C 20.3125 21.09375 20.921875 20.484375 20.921875 19.726562 L 20.921875 17.453125 Z M 19.554688 17.453125 "/>
<path style=" stroke:none;fill-rule:nonzero;fill:rgb(74.117649%,74.117649%,74.117649%);fill-opacity:1;" d="M 3.867188 5.628906 L 7.050781 5.628906 C 7.425781 5.628906 7.730469 5.933594 7.730469 6.3125 L 7.730469 15.863281 C 7.730469 16.238281 7.425781 16.542969 7.050781 16.542969 L 3.867188 16.542969 C 3.488281 16.542969 3.183594 16.238281 3.183594 15.863281 L 3.183594 6.3125 C 3.183594 5.933594 3.488281 5.628906 3.867188 5.628906 Z M 3.867188 5.628906 "/>
<path style=" stroke:none;fill-rule:nonzero;fill:rgb(74.117649%,74.117649%,74.117649%);fill-opacity:1;" d="M 14.78125 8.359375 L 17.964844 8.359375 C 18.339844 8.359375 18.648438 8.664062 18.648438 9.039062 L 18.648438 13.132812 C 18.648438 13.511719 18.339844 13.816406 17.964844 13.816406 L 14.78125 13.816406 C 14.402344 13.816406 14.097656 13.511719 14.097656 13.132812 L 14.097656 9.039062 C 14.097656 8.664062 14.402344 8.359375 14.78125 8.359375 Z M 14.78125 8.359375 "/>
<path style=" stroke:none;fill-rule:evenodd;fill:rgb(14.901961%,77.64706%,85.490197%);fill-opacity:1;" d="M 9.550781 7.914062 C 9.300781 7.914062 9.097656 8.117188 9.097656 8.367188 L 9.097656 13.824219 C 9.097656 14.171875 9.464844 14.390625 9.769531 14.226562 L 12.960938 11.496094 C 13.304688 11.210938 13.304688 10.984375 12.960938 10.699219 L 9.769531 7.96875 C 9.703125 7.933594 9.625 7.914062 9.550781 7.914062 Z M 9.550781 7.914062 "/>
</g>
</svg>

<svg xmlns="http://www.w3.org/2000/svg" width="22pt" height="22pt" viewBox="0 0 22 22"><path d="M2.273 1.082c-.753 0-1.363.61-1.363 1.363V4.72h1.363V3.355c0-.503.407-.91.91-.91h1.364V1.082zm15.008 0v1.363h1.367c.504 0 .907.407.907.91V4.72h1.367V2.445c0-.754-.61-1.363-1.367-1.363zM.911 17.453v2.274c0 .757.609 1.367 1.362 1.367h2.274v-1.367H3.184a.905.905 0 0 1-.91-.907v-1.367zm18.644 0v1.367a.902.902 0 0 1-.907.907h-1.367v1.367h2.274c.758 0 1.367-.61 1.367-1.367v-2.274zm0 0" fill="#78909c"/><path d="M3.867 5.629h3.184c.375 0 .68.305.68.684v9.55a.68.68 0 0 1-.68.68H3.867a.681.681 0 0 1-.683-.68v-9.55c0-.38.304-.684.683-.684zm0 0M14.781 8.36h3.184c.375 0 .683.304.683.68v4.093a.684.684 0 0 1-.683.683H14.78a.682.682 0 0 1-.683-.683V9.039c0-.375.304-.68.683-.68zm0 0" fill="#bdbdbd"/><path d="M9.55 7.914a.453.453 0 0 0-.452.453v5.457c0 .348.367.567.672.403l3.19-2.73c.345-.286.345-.513 0-.798L9.77 7.97a.477.477 0 0 0-.22-.055zm0 0" fill-rule="evenodd" fill="#26c6da"/></svg>
